X:1
T:- # -
%%score [ 1 2 3 4 ]
L:1/8
M:none
K:F
V:1 treble nm="Sopran" snm=" "
V:2 treble nm="Alt"
V:3 treble-8 nm="Tenor"
V:4 bass nm="Baß"
V:1
"^Christobal de Morales" z8 | z4 A4 | A2 A2 d4- | d2 d2 c3"^IX.  Inclina domine" B |"^5" AG A4 GF | %5
w: |In-|cli- na do-|\- mi- ne *||
 E2 c2 B2 A2- | A2 G2"^1546" A4- | A4 z4 | z8 |"^10" c3 B AG B2- | BA A4 G2 | A8 | z8 | z2 d4 c2 | %14
w: * au- rem tu|\- * am,|||au \- * * \-|\- * rem tu-|am,||et ex-|
"^15" d2 f2 e2 f2- | f2 ed c3 d | e2 f4 e2- | e2 d4 ^c2 | d4 z2 c2- |"^20" c2 c2 c4 | d4 e4- | %21
w: \-au \- * \-|* \- * * \-|* \- \-|* * di|me, quo|\- ni- am|in- ops|
 e4 z4 | z8 | z8 |"^25" z4 z2 e2 | f2 f2 e4 | z8 | z8 | z8 |"^30" z4 z2 e2 | f2 f2 e3 d | %31
w: |||et|pau- per sum||||et|pau- per sum, *|
 e2 f4 ed | cBAG A2 c2 | F2 G2 ABcd |"^35" e2 d2 f2 e2- | ed d4 c2 | B2 AG A4 | G4 z2 c2 | %38
w: |* * * * * et|pau- per sum * * *|* e * \-|* \- * \-|* \- * \-|go, cu-|
 c2 B2 c2 c2 |"^40" GABc de f2- | f2 e2 f2 ed | c2 d3 cBA | B4 A4 | z8 |"^45" z4 z2 A2- | %45
w: \-sto- di a- ni-|mam * * * * * *|* me \- * \-|* \- * \- *|\- am,||de|
 A2 F2 G4 | G4 z4 | z2 c4 B2 | A2 c2 G4 |"^50" z8 | z4 z2 c2 | B2 A2 c2 G2 | c2 d3 c c2- | %53
w: \- us me-|~us,|spe- ra-|vi in ~te,||spe-|\-ra- vi in te.||
 c2 =B2 c4- |"^55" c4 z4 | z4 z2 c2 | c2 c2 B2 A2 | c4 z4 | z4 z2 f2 |"^60" f2 f2 e2 d2 | %60
w: ||Mi-|se- re- re me-|\-i~,|mi-|se- re- re me-|
 f3 e c2 d2 | GABG A2 G2 | B4 A4 | z4 z2 A2 |"^65" A2 A2 c4- | c4 d4- | d2 d2 c2 f2- | f2 ed edcB | %68
w: i * * do-|mi \- * \- * \-|ne, *|lae-|\-ti- fi- ca|* a-|\- ni- mam ser-|* vi * * * * *|
 A3 B cd c2- |"^70" c2 BA G4 | F4 z2 A2 | A2 A2 B2 B2 | G4 A4 | c4 G2 B2- |"^75" BcdB c3 d | %75
w: |* * * tu-|\-i~, lae-|ti- fi- ca a-|ni- man|ser- vi tu|\- * * * \- *|
 e2 f2 e2 d2- | d2 ^c2 d4 | z8 | z2 d4 d2 |"^80" c2 c2 d2 f2- | f2 e2 d2 c2 | d4 A4 | A8- | A8 | %84
w: \- * * \-|\- * i,||quo- ni-|am ad te do-|* mi- ne cla-|ma \--|vi,||
"^85" z2 d4 d2 | c2 c2 d4- | d8- | d8- | d4 z4 |"^90" z8 | z4 z2 B2- | B2 A2 G2 F2 | G2 A2 B2 A2- | %93
w: quo- ni-|am ad te|||||do-|* mi- ne cla-|ma * \- *|
 A2 G2 A4- | A8- | A8 |"^Secunda pars" z8 | z8 | A4 A2 A2 |"^100" c4 B4 | A8 | z2 d4 c2 | %102
w: \- * *||~vi.|||De- duc me|do- mi-|~ne|in vi-|
 d2 f4 ed | edcB A2 c2- |"^105" cB A4 G2 | A2 c2 B4 | A6 B2 | c2 d2 B2 d2- | d2 cB A4- |"^110" A8 | %110
w: a tu * \-|\- * * * \- *|\- * * \-|* \- *|a, in|vi- a tu \-|\- * \- a~||
 z4 z2 c2- | c2 A2 c2 d2 | A4 z2 c2 | c2 B2 AGAB |"^115" c2 G2 B4 | A2 GF G4 | z4 z2 c2 | %117
w: et|* in- gre- di-|ar in|ve- ri- ta * \- *|\- te tu-|\- * \- ~a,|in|
 c2 B2 AGAB | c2 G2 B4 |"^120" A3 B c2 GA | Bc d3 e f2 | e2 d4 ^c2 | d2 A2 A2 A2 | B2 A4 G2 | %124
w: ve- ri- ta * \- *|\- te tu-|\- * \- * \-|* * \- * \-|* \- *|~a, lae- te- tur|cor ~me \-|
"^125" A8 | z8 | z8 | z8 | z8 |"^130" z8 | z8 | z8 | z2 A2 A2 A2 | F2 G2 A2 c2- | %134
w: ~um||||||||Quo- ni- am|mag- na * *|
"^135" cBAB cA B2 | A2 F2 G2 B2- | B2 A3 GAB | cA B4 AG | A4 z4 |"^140" z2 A2 A2 A2 | G2 F2 A2 B2 | %141
w: |est, quo- ni- am|* mag- na * *||est|mi- se- ri-|cor- di- a tu-|
 c3 B AG B2- | B2 A4 G2 | A4 z2 A2 |"^145" A2 A2 c4 | G2 c4 B2 | c2 G2 A2 c2- | cBAG F2 c2 | %148
w: a * * * su-|\- per *|me et|e- ru- i-|sti a- ni-|\-mam me * \-|\- * * \- am, a-|
 d2 f4 e2- |"^150" e2 d2 e4 | z2 c2 c2 c2 | f6 e2 | d2 cB AGAB | cBcd e2 f2 |"^155" e2 d4 ^c2 | %155
w: ni- mam me|\- * am|ex in in-|fer- \-|\- * \- * \- * \-|* \- * \- no in-|fe- ri- o|
 d3 c de f2- | f2 e2 d4 | ^c8 |"^Tertia pars" c4 c2 c2 | B4 A2 c2- | c2 d2 e2 f2- | fe d4 cB | %162
w: \- * \- * \-|\- * \-|~ri.~|Do- mi- ne|de- us mi|\- se- ra *|* * \- * \-|
 c2 d3 c c2- | c2 =B2 c4 |"^165" z8 | z2 e4 d2 | e2 f2 e3 d | c2 f2 e2 d2 | c4 z4 |"^170" z4 c4- | %170
w: * \- * \-|* \- tor||et mi-|se- ri- cors, *|et mi- se- ri-|cors|pa-|
 c2 c2 c4- | c2 BA G2 c2 | B2 A4 G2 | A4 z2 A2 |"^175" c4 A2 A2- | A2 G2 A2 c2 | B2 A2 z4 | %177
w: * ti- ens|* * * * et|mul \- \-|~tae, et|mul- tae ~mi|\- se- ri- cor-|di- ae|
 z2 A3 GAB | c4 A2 c2- |"^180" cBcd e2 c2- | cA d4 ^c2 | d8 | z4 z2 d2- | d2 A2 c2 B2 | %184
w: et * * *|ve- rax, et|* * * * * ve-||~rax.|Re-|* spi- ce in~|
"^185" ABcd e2 f2- | f2 ed c4 | z2 d2 d2 c2 | f4 e4 | c2 d3 cBA |"^190" B4 A4 | z2 c4 B2 | %191
w: me * * * * *||et mi- se-|re- re|me \- * \- *|\- ~i,|et mi-|
 c3 B AG A2- | A2 G2 A4- | A4 z2 A2 |"^195" B2 B2 c4- | c2 BA B2 c2 | A4 z4 | z8 | z8 |"^200" z8 | %200
w: se- * \- * re-|* \- re|* et|fac me \-|\- * * um sig\-|\-num,||||
 z4 z2 c2 | c2 c2 d2 e2 | A2 d2 cBcd | efge f2 e2- |"^205" e2 d4 ^c2 | d4 z4 | z4 z2 A2 | %207
w: et|fac me- um sig-|num in bo * * \-|* * \- * * \-|* \- *|~num,|ut|
 A2 A2 c4- | c2 BA G2 F2 |"^210" B2 B2 A2 FG | A2 B2 c4- | c4 z2 c2- | c2 B2 c3 B/A/ | %213
w: vi- de- ant,|* * * qui o-|de- runt * * *|* * me,|* quo-|* ni- am * *|
 (G2 B2) A2 G2 |"^215" d4 z2 c2- | c2 B2 c2 c2 | G8- | G4 z4 | z8 |"^220" z8 | z4 z2 g2- | %221
w: * tu do- mi-|ne ad-|\- iu- vi- sti|me,||||ad-|
 g2 f2 g2 g2 | d2 f2 e2 d2- | d2 cB A2 d2- |"^225" d2 ^c2 d4 | z2 f4 f2 | e2 d2 c2 B2 | A2 B4 A2- | %228
w: * iu- vi- sti|me, ad- iu- vi|\- * \- * \-|* sti me|et con-|\-so \- la- tus|es * *|
 A2 G2 AGAB |"^230" cBcd e2 f2- | fe d4 ^c2 | d8 |] %232
w: * * me. * * *||||
V:2
 z8 | z8 | z8 | z8 | z8 | z8 | z4 E4 | E2 E2 A4- | A2 A2 G3 F | ED E4 G2 | F2 E4 D2 | E4 z4 | %12
w: ||||||In-|\-cli- na do-|\- mi- ne *|* * * au-|rem tu \-|am,|
 z4 z2 A2- | A2 G2 A2 c2- | cB B3 A A2- | A2 G2 A4 | z2 F2 A4 | G2 B2 A4- | A4 z2 A2- | A2 A2 A4 | %20
w: et|* ex- au \-|\- * \- * \-|\- di me,|et ex-|au- di ~me,|* quo|\- ni- am|
 A4 A4- | A4 z4 | z8 | z4 z2 E2 | F2 F2 E4 | z8 | z8 | z8 | z2 E2 F2 F2 | E3 F GE A2- | %30
w: in- ops|||et|pau- per sum||||et pau- per|sum * * * e|
 A2 GF G2 A2- | AGFE D4 | z2 F3 E A2- | AG G4 F2 | G2 B3 AGF | GFED E4 | D8 | z8 | z8 | %39
w: \- * * * \-|* * \- * ~go,|et * pau|\- * per sum|e * \- * *|* \- * * *|go,|||
 z2 G2 G2 F2 | G2 G2 DEFG | A2 B4 A2- | A2 G2 A4 | z8 | z2 G2 E2 F2- | FEDC D4 | E4 D4 | C4 z4 | %48
w: cu- sto- di|a- ni- mam * * *|* me \-|\- * am,||de- us me|\- * * * \-|\- *|~us,|
 z8 | G4 F2 E2 | G2 D2 z2 E2 | F2 D2 C3 D | E2 D2 A4 | G4 z2 G2 | G2 G2 F2 E2 | G3 F G2 A2- | %56
w: |spe- ra- vi|in ~te, spe-|\-ra- vi in *||~~te. Mi-|se- re- re me-|* * i do|
 AG G3 F F2- | F2 E2 F2 D2 | A6 B2- | B2 A2 B4 | A4 G4 | z4 z2 G2 | G2 G2 F2 D2 | E2 G3 F F2 | %64
w: \- * \- * \-|\- * \- ~mi|\- \-|* \- *|\- ~ne,|mi-|se- re- re me-|i do * \-|
 D2 F2 E4 | z4 z2 D2 | D2 D2 F4 | G6 G2 | F2 ED E2 A2 | G2 F4 E2 | F8 | z4 z2 D2 | D2 D2 F4 | %73
w: \-mi \- ne,|lae-|ti- fi- ca|a- ~ni-|mam * * * ser-|vi tu \-|\-i~,|~lae-|ti- fi- ca|
 G6 G2 | F2 ED A4 | z2 A4 G2 | A4 F4 | z2 G4 G2 | F2 F2 G2 B2- | B2 A2 G2 F2 | G4 F4- | F8- | %82
w: a- ~ni-|mam * * *|ser- vi|tu- ~i,|quo- ni-|am ad te do|\- mi- ne cla-|ma- vi,||
 F4 z2 D2- | D2 C2 D2 E2 | F2 G3 FED | E4 D4 | z2 G4 G2 | F2 F2 G2 B2- | B2 A2 G2 F2 | G4 F4 | z8 | %91
w: * do-|\- mi- ne cla-|ma \- * \- *|\- ~vi,|quo- ni-|am ad te do-|* mi- ne cla-|\-ma- vi,||
 F4 E2 D2- | D2 C2 DCB,A, | B,4 A,2 D2- | D2 F4 ED | E8 | D4 D2 D2 | F4 E4 | D2 CB, C2 D2 | %99
w: do- mi- ne|* cla- ma * * \-|\- ~vi, ~cla|\- ma- * \-|~vi.|De- duc me|do- mi-|ne * * * *|
 A,4 z2 D2- | D2 C2 D2 F2- | F2 ED E2 F2- | FEDC D4 | C4 z2 F2- | F2 E4 D2- | D2 C2 D2 F2 | %106
w: * in|* vi- a tu|\- * * * \-|* * \- ~ *|\-a, in|* vi- a|* tu \- *|
 E4 z2 D2 | E2 G3 F F2- | F2 E2 F4- | F4 z2 F2- | F2 D2 F2 F2 | E4 z4 | z2 F4 E2 | F2 G2 D2 F2 | %114
w: a, in|vi- a * tu-|* * a~|* et|* in- gre- di-|~ar,|et in-|gre- di- ar in|
 F2 E2 DCDE | F2 C2 E3 D | EF G4 F2 | E2 D2 z2 F2 | F2 E2 DCDE | F2 C2 E4 | D2 G4 F2 | G2 D2 E4 | %122
w: ve- ri- ta \- * \-|\- te tu *|\- * \- \-|\- ~a, in|ve- ri- ta * \- *|\- te tu-|* \- \-|* \- *|
 D4 z2 F2 | F2 F2 E2 D2 | F4 E2 F2- | FE A4 G2 | A4 z2 E2 | E2 C2 F4- | F2 E2 D2 CB, | %129
w: ~a, lae-|te- tur cor ~me|\- * \-|* \- * \-|~um, ut|ti- me- at|* no \- * *|
 C3 D ED F2- | FEDC D2 F2 | E2 D4 ^C2 | D3 C A,2 C2 | B,4 A,4 | z8 | z2 D2 D2 D2 | B,2 C2 D2 F2- | %137
w: \- * \- men tu|\- * * * \- *|\- * \-|* * * \-|\- ~um.||Quo- ni- am|mag- na * *|
 FE D4 CB, | C2 D2 D2 D2 | C2 A,2 C2 D2 | E2 F4 ED | C2 F3 EDC | D2 A,2 B,4 | A,2 D2 D2 D2 | %144
w: |est mi- se- ri-|\-cor- di- a tu|\- * \- *|a su \- * \-|* \- ~per|me et e- ru-|
 F4 C2 E2- | E2 DC D4 | C4 z4 | z2 C2 D2 F2- | FE D4 C2- | C2 B,2 C4 | z2 A,2 A,2 A,2 | %151
w: i \- *|\- * * \-|\-sti|a- ni- mam|* * * ~me|* \- am|ex in in-|
 D3 C/D/ C2 C2 | D2 E2 FEFG | A2 GF E2 A2 | G2 F2 E4 | D2 F3 EDC | D2 E2 F4 | E8 | A4 A2 A2 | %159
w: ~fer \- * no ~in-|\-fe- ri~- o- * * \-|* * * \- *|\- * *|~~ri, ~in \- * \-|fe- ri- o-|~ri.|Do- mi- ne|
 G4 E2 A2- | AG F2 E2 A2 | F2 D2 A4- | A2 G2 G4- | G4 C4 | z2 E4 D2 | E4 F4 | E2 A4 G2 | %167
w: de \- *|* * \- us mi|\- se- ra|* \- *|\- tor|et mi-|\-se- ri-|cors, et mi-|
 A2 B2 A4- | A4 G4- | G2 G2 G4 | z4 C4- | C2 C2 C3 B,/C/ | D2 A,2 B,4 | A,4 z2 F2 | E2 F3 ECD | %175
w: se- ri- cors|* pa-|* ti- ens,|pa-|\- ~ti- ens * *|* et~ mul-|~tae, et|~mul- tae * * *|
 E2 D4 C2 | D2 F2 E2 D2 | z2 C2 D2 C2 | F4 E2 A2- | A2 GF E2 A2- | A2 G2 A4 | F4 z2 B2- | %182
w: * mi- se-|ri- cor- di- ~ae,|~mi- se- ri-|\-cor \- *|\- ~di \- ae ~et|* ve \-|~rax. Re~-|
 B2 A2 A2 G2 | F3 E/D/ E2 F2- | F2 F2 E2 D2 | A4 z2 A2 | A2 G2 A4- | A2 F2 G2 A2- | AG B3 A A2- | %189
w: * spi- ce in|me, * * * re-|* spi- ce in|me et|mi- se- re-|\- re me *|\- * * * \-|
 A2 G2 F3 E/D/ | E4 D4 | A,3 B, C4 | z8 | z2 C2 C2 C2 | D2 E2 A,3 B, | C2 D2- D2 C2 | F4 E4 | z8 | %198
w: * \- * * \-|\- ~i,|~me \- i||et fac me-|um sig- num *|* * * in|bo- ~num,||
 z8 | z8 | z2 F2 F2 F2 | G2 A2 D2 G2 | FEFG AB A2- | A2 G2 A3 G/A/ | GFED E4 | z2 D2 D2 D2 | %206
w: ||et fac me-|\-um sig- num in|bo * \- * * * \-|* \- * \- *|* \- * * ~num,|ut vi- de-|
 (F6 ED) | (C2 F4) ED | E2 F2 B2 A2 | F8 | z2 F4 E2 | F3 E/D/ C2 F2 | E2 D2 A3 G/F/ | %213
w: ant * *|* qui * *|* o- de- runt|~me,|quo- ni-|am * * * ~tu|do- mi- ne, * *|
 (E2 F2) E3 F | G2 D2 A4 | z8 | z8 | z2 G4 F2 | G2 G2 D2 F2 | E2 D4 CB, | A,2 D4 C2 | D4 z4 | %222
w: * tu do \-|\- mi- ne|||ad- iu-|vi- sti me, ad|\- * ~iu \-|\-vi \-- sti|~me,|
 z2 D2 C2 B,2- | B,CDE F2 G2 | A4 F4 | z2 A4 A2 | G2 F2 E2 F2 | E2 G3 E F2 | DCDE F4 | %229
w: ad \- iu|* \- * \- vi- *|sti me|et con-|\-so- la- tus es|||
 E2 A2 G2 F2 | B2 B2 A4 | A8 |] %232
w: ~me, et con- so-|la- tus es|~me.|
V:3
 A4 A2 A2 | d6 d2 | c2 d3 cBA | G2 d2 e2 f2- | f2 ed c2 d2- | dc/B/ c2 dcBA | B4 A4 | z4 z2 c2 | %8
w: In- cli- na|do- mi-|ne * * * *|* au- rem tu|\- * \- * *||\- am,|au-|
 d4 e4 | d4 z4 | z4 z2 d2- | d2 c2 d2 f2 | e8 | z2 d2 f2 e2 | d4 c2 BA | B4 A3 B | cA d2 cBcd | %17
w: rem tu-|am,|et|* ex- au- di|me,|et ex- au-|\-di me, * *||* * et ex \- * \-|
 ec f2 e2 e2 | d4 z2 e2- | e2 e2 f4 | f4 e4 | z2 e2 f2 f2 | e3 d e2 f2- | f2 ed c4 | z2 d4 c2 | %25
w: * \- * au- di|me, quo|\- ni- am|in- ops|et pau- per|sum * * *||et pau-|
 B2 A3 Bcd | efge f3 e | dc e3 d d2- | d^c/=B/ c2 d2 A2- | ABcA B2 c2 | d4 z4 | z2 A2 B2 B2 | %32
w: per sum * * *||* * e- * *|* * \- * go, e|* \- * * \- *|go,|et pau- per|
 A4 z4 | z8 | z4 z2 c2 | c2 B2 c2 c2 | GABc de f2- | f2 e2 f2 ed | c2 d2 A2 c2- | cBGA Bc d2 | %40
w: sum,||cu-|sto- di a- ni-|mam * * * * * *|* * me * \-~~|\- * * \-|* * \- * * * \-|
 c4 z2 B2 | A2 G2 d4- | d2 d2 f4 | e2 d3 cBA | B2 d2 c2 d2- | dc c3 =B/A/ B2 | c4 z2 f2- | %47
w: am, cu-|sto- di a-|\- ni- mam|me * \- * \-|\-am, de- us me|\- * * * * \-|us, spe-|
 f2 e2 d4 | f2 c3 dec | d4 z2 g2- | g2 f2 e2 g2 | (de)fd edef | ge f3 edc | d4 c4- | c4 z4 | z8 | %56
w: \- ra- vi|in te, * * *|* spe|\- ra- vi in|||* te.|||
 z8 | z4 z2 f2 | f2 f2 e2 d2 | f4 g3 f | d2 f2 e2 d2- | dcde f2 c2 | d2 e3 d d2- | d2 c2 d4 | %64
w: |Mi-|se- re- re me-|i * *||* * * * * do-|mi- ne, * *||
 z4 z2 e2 | e2 e2 g4 | z8 | z8 | z2 A2 A2 A2 | c8 | d6 d2 | c2 d3 cBA | B4 d2 c2- | cdef e2 d2- | %74
w: lae-|ti- fi- ca,|||lae- ti- fi-|ca|a- ni-|man ser \- * *|\- vi tu|\- * * * \- i,|
 d2 f4 e2 | c2 d2 c2 d2 | e4 z2 d2- | d2 d2 c2 c2 | d4 z4 | z8 | z8 | z2 d4 c2 | c2 c2 d2 f2- | %83
w: * a- ni-|man ser- vi tu-|\-i~, quo|\- ni- am ad|te,|||quo- ni-|am ad te do-|
 f2 e2 d2 c2 | dcBA B4 | A4 z2 G2 | B2 G2 BABc | d4 G4 | z2 d4 d2 | c2 c2 d2 f2- | f2 e2 d2 cB | %91
w: \- mi- ne cla-|ma * * * \--|vi, ad|te cla- ma * \- *|\- vi,|quo- ni-|\-am ad te do-|* mi- ne cla \-|
 c4 B4 | z4 d4 | d6 A2 | d4 c4- | c8 | z8 | z8 | z8 | z8 | z8 | z8 | z8 | z8 | z8 | z8 | z8 | z8 | %108
w: ma- vi,|cla-|ma- *|\- vi.||||||||||||||
 z8 | z8 | z8 | z8 | z8 | z8 | z8 | z8 | z8 | z8 | z8 | z8 | z8 | z8 | z8 | z8 | z8 | z8 | z8 | %127
w: |||||||||||||||||||
 z8 | z8 | z8 | z8 | z8 | z8 | z8 | z8 | z8 | z8 | z8 | z8 | z8 | z8 | z8 | z8 | z8 | z8 | z8 | %146
w: |||||||||||||||||||
 z8 | z8 | z8 | z8 | z8 | z8 | z8 | z8 | z8 | z8 | z8 | z8 | f4 f2 f2 | d2 e3 c f2 | e2 d3 c c2 | %161
w: ||||||||||||Do- mi- ne|de \- us mi|\- * \- se-|
 d2 f4 ed | e2 d2 z2 e2- | e2 d2 e2 f2 | e3 d c2 d2- | d2 c2 A2 B2 | c2 d2 A2 e2- | e2 d2 e2 f2 | %168
w: ra \- * *|\- tor et|* mi- se- ri-|cors, * * et|* mi- se- ri-|cors, * * et|* mi- se- ri-|
 e8 | z8 | e6 e2 | e8 | f6 ed | c2 d2 A2 d2 | c2 AB c4 | z4 z2 A2 | G2 A2 c2 B2 | A4 z2 A2- | %178
w: ~cors||pa- ti-|~~ens|et * *|* mul * \-|\- * \- tae|~mi-|se- ri- cor- di-|ae et|
 AGAB c2 A2 | c3 B cd e2 | f2 d2 e4 | d8- | d8 | z4 z2 d2- | d2 A2 c2 B2 | ABcd e2 f2- | f2 ed e4 | %187
w: * * * * * ve|\- \- * * \-|* \- *|rax.||Re-|\- spi- ce in|me * * * * *||
 d4 z4 | z8 | z4 z2 d2 | d2 c2 f4 | e3 d e2 f2- | f2 ed cBAG | A2 F2 f4 | g4 c4 | z8 | %196
w: ||et~|mi- se- re-|re * * *||* * me|\- i||
 z2 c2 c2 c2 | d2 e2 ABcd | efge f2 e2- | e2 d4 ^c2 | d4 z2 A2 | c2 c2 B2 c2 | dcde f2 f2 | %203
w: et fac me-|um sig- num * * *|* * * * * in|* bo- *|num et|fac me- um sig-|num * * * * ~in|
 e4 d2 A2 | c2 d2 A4 | d4 z2 d2 | d2 d2 f4- | f2 ed c4- | c2 c2 B2 c2 | d4 c3 B | A2 GF G2 c2- | %211
w: bo- num, ~in|bo \- \-|num, ut|vi- de- ant,||* qui o- de-|runt me, *|* * * * qui|
 cB A4 GF | G2 G2 F4 | z8 | z2 f4 e2 | f6 e2 | d2 d2 e2 c2- | c2 B2 A2 A2 | G4 z4 | z8 | z8 | %221
w: * * o- * \-~|de- runt me||quo- ni-|am ~tu|do- mi- ne ad-|* iu- vi- sti|~me,|||
 z4 z2 g2- | g2 f2 g2 g2 | d2 f4 ed | e4 d4 | z2 d4 f2 | c2 d2 A2 d2 | c2 d3 cBA | B4 A2 d2 | %229
w: ad-|* iu- vi- sti|me * * *||et con-|\-so- la- tus es||* ~me, et|
 c2 f2 e2 d2 | f2 g2 e4 | d8 |] %232
w: con- so- la- tus|es * *|~me.|
V:4
 z8 | z8 | z8 | z8 | z4 A,4 | A,2 A,2 D4- | D2 D2 C3 B, | A,G, A,3 G,F,E, | D,2 F,2 C,2 C2- | %9
w: ||||In-|cli- na do-|\- mi- ne *||* * * au|
 CB, A,4 G,2 | A,2 C2 B,4 | A,4 z2 A,2- | A,2 G,2 A,2 C2 | B,4 A,4 | z8 | z4 z2 C2- | %16
w: \- * * rem|tu \- am,|* et|* ex- au- di|~me, *||et|
 C2 B,2 A,3 B, | C2 D2 A,4 | D,4 z2 A,2- | A,2 A,2 F,4 | D,4 A,4- | A,8- | A,4 z2 A,2 | %23
w: * ex- au- *|\- * di~|me, quo|\- ni- am|in~- ops||* et|
 B,2 B,2"^© Michael Wendel 2005\nThis edition may be freely duplicated, distributed, performed or recorded for non-profit performance or use.\n" A,4- | %24
w: pau- per sum|
 A,2 G,F, G,2 A,2 | D,4 z2 A,2- | A,2 G,2 A,2 B,2- | B,A,G,F, G,F,E,D, | E,4 D,4 | z8 | z8 | z8 | %32
w: * * * * e-|go, e~-|* \- * \-|\- * * * \- * * *|\- go,||||
 z4 z2 A,2 | B,2 B,2 A,4 | z8 | z8 | z2 G,2 G,2 F,2 | G,2 G,2 D,E,F,G, | A,2 B,2 F,4 | z8 | z8 | %41
w: et|pau- per sum,|||cu- sto- di|a- ni- mam * * *|* me- am,|||
 z2 G,2 G,2 F,2 | G,2 G,2 D,E,F,G, | A,2 B,3 A, A,2- | A,2 G,2 A,2 F,2 | A,2 A,2 G,4 | z2 C4 B,2 | %47
w: cu- sto- di|a- ni- mam * * *|* me * *|* * am, de-|us me- us,|spe- ra-|
 A,2 C2 G,4 | z4 z2 C2- | C2 B,2 A,2 C2 | G,A, B,2 C4 | z4 z2 C2- | C2 B,2 A,2 C2 | G,4 C,4- | %54
w: vi in ~te,|spe-|\- ra- vi in|te, * * *|spe|\- \- ra- vi|in te.|
 C,4 z2 C2 | C2 C2 B,2 A,2 | C4 D3 C | A,2 C2 B,4 | A,2 D2 C2 B,2- | B,C D2 G,4 | z4 z2 G,2 | %61
w: * Mi-|se- re- re me-|i do \-|* * \-|\- mi * \-|* \- * ne,|mi-|
 G,2 G,2 F,2 E,2 | G,3 F, D,2 F,2 | E,4 D,4 | z2 A,2 A,2 A,2 | C3 B, G,2 B,2- | B,2 B,2 A,2 G,F, | %67
w: se- re- re me-|i * * do-|mi- ne,|lae- ti- fi-|ca * * a-|* ni- mam * *|
 C2 B,2 C4 | F,4 z4 | z8 | z2 D,2 D,2 D,2 | F,4 G,4- | G,2 G,2 F,3 E,/D,/ | C,2 C4 G,2 | %74
w: ser- vi tu-|i,~||lae- ti- fi-|ca a-|\- ~ni- mam * *|* ser- vi|
 B,3 A, F,G, A,2- | A,2 D,2 A,2 B,2 | A,4 D,3 E, | F,2 G,2 E,4 | D,4 z4 | z4 z2 D2- | %80
w: tu \- * * \-|* \- * \-|\- * \-||i,|do-|
 D2 C2 D2 A,2 | B,4 F,4- | F,4 z4 | z8 | z8 | z8 | z8 | z4 z2 G,2- | G,2 F,2 G,2 D,2 | E,4 D,4 | %90
w: * mi- ne cla-|ma- vi,||||||do-|* mi- ne cla-|\-ma- vi,|
 z2 G,4 G,2 | F,2 F,2 G,2 B,2- | B,2 A,2 G,2 F,2 | G,4 D,4- | D,4 A,4- | A,8 | z8 | z8 | z8 | z8 | %100
w: quo- ni-|am ad te do-|* mi- ne cla-|ma \-|\- vi.||||||
 z8 | z8 | z8 | A,4 A,2 A,2 | C4 B,4 | A,4 z2 D2- | D2 C2 D2 CB, | A,2 B,3 A,G,F, | G,4 F,4 | %109
w: |||De- duc me|do- mi-|ne in|* vi \- * \-|a tu * \- *|\- a~|
 z2 F,4 D,2 | F,2 G,2 D,E,F,G, | A,2 C4 B,2 | C2 D2 A,4 | z8 | z8 | z4 z2 C2 | C2 B,2 A,G,A,B, | %117
w: et in-|gre- di- ar, * * *|* et in-|gre- di- ar|||in|ve- ri- ta * \- *|
 C2 G,2 D3 C/B,/ | A,2 C2 B,2 A,G, | F,2 A,3 B, C2 | B,2 G,2 D4 | C2 B,2 A,4 | D,4 z2 D2 | %123
w: \- te tu \- *|\- * \- \- *|a, in * *|ve- ri- ta-|te tu \-|a, lae-|
 D2 D2 C2 B,2 | A,3 B, C2 D2- | DCB,A, B,4 | A,8 | z2 A,2 A,2 F,2 | B,6 B,2 | A,2 G,F, G,2 A,2- | %130
w: te- tur cor ~me|\- * * \-|* * \- * *|~um,|ut ti- me-|at no|\- * \- men tu|
 A,G,F,E, F,G,A,F, | G,F,E,D, E,4 | D,4 z4 | z4 z2 A,2 | A,2 A,2 F,2 G,2 | A,2 B,3 A,G,F, | %136
w: \- * * * \- * * *|\- * * * \-|um.|Quo-|ni- am mag- na||
 G,2 A,2 D,4 | z2 G,2 G,2 G,2 | F,2 D,2 F,2 G,2 | A,2 F,2 F,2 F,2 | E,2 D,2 F,2 G,2 | %141
w: * * est|mi- se- ri-|cor- di- a tu-|\-a, mi- se- ri-|cor- di- a tu-|
 A,4 F,2 G,2- | G,2 F,2 G,4 | D,8 | z2 A,2 A,2 A,2 | C4 G,2 G,2 | A,2 C3 B,A,G, | F,8 | B,4 A,4 | %149
w: a su \-|\- * per|~me|et e- ru-|i- sti a-|\-ni- mam * * *||me \-|
 G,4 C,4 | z2 F,2 F,2 F,2 | D,E,F,G, A,B,CA, | B,2 C2 D2 CB, | A,6 F,2 | C2 D2 A,4 | D,2 D3 CB,A, | %156
w: \- am|ex in in-|fer * \- * \- * * \-|\- * \- * \-|no in|fe- ri- o-|ri, in \- * \-|
 B,2 C2 D4 | A,8 | F,4 F,2 F,2 | G,4 A,4- | A,2 D,2 A,4 | B,4 A,4- | A,2 B,2 C4 | G,4 z2 A,2- | %164
w: fe- ri- o-|~ri.|Do- mi- ne|de- us|* mi- se-|ra- *|\- * *|tor et|
 A,2 G,2 A,2 B,2 | A,4 z4 | z4 z2 C2- | C2 B,2 C2 D2 | A,4 z4 | C6 C2 | C3 B, A,G, A,2- | %171
w: * mi- se- ri-|\-cors,|et|* mi- se- ri-|cors|pa- ti-|ens * * * et|
 A,2 G,F, E,2 A,2 | D,4 z4 | z2 D,3 E,F,G, | A,2 F,3 G,A,B, | CA, B,2 A,4 | z2 D,2 C,2 D,2 | %177
w: * * * * mul-|\-tae,|et * * *|* mul \- * *|* * * tae|mi- se- ri-|
 F,3 E, D,2 F,2- | F,E,F,G, A,2 A,2 | F,2 A,3 B, C2 | F,2 B,2 A,4 | D,4 z2 G,2- | G,2 D,2 F,2 G,2 | %183
w: cor \- * \-|\- * * * \- di-|ae et * *|ve- * \-|rax. Re-|* spi- ce in|
 D,4 z4 | z8 | z2 A,2 A,2 F,2 | B,4 A,4 | z8 | z8 | z8 | z8 | z2 A,2 A,2 F,2 | B,4 A,2 C2- | %193
w: me||et mi- se-|re- re,|||||et mi- se-|re- re me|
 CB,A,G, F,2 A,2 | G,4 z2 F,2 | F,2 F,2 G,2 A,2 | D,E,F,G, A,B,CA, | B,2 C3 B, A,2- | %198
w: \- * * \- * \-|i et|fac me- um sig-|\-num * * * * * * *|* in * bo|
 A,2 G,2 A,3 G,/A,/ | G,F,E,D, E,4 | D,3 E, F,4 | z8 | z8 | z8 | z8 | z8 | z2 D,2 D,2 D,2 | %207
w: \- * \- * *|\- * * * \-|* \- ~num,||||||ut vi- de-|
 F,3 G, A,4- | A,2 F,2 G,2 A,2 | B,4 F,4- | F,2 D,2 C,4 | F,8 | z4 z2 C2- | C2 B,2 C3 B,/A,/ | %214
w: \-ant, * *|* qui o- de|\- \-|\- * ~runt|~me,|quo-|\- ni- am * *|
 G,2 B,2 A,2 A,2 | D4 z2 C2- | C2 B,2 C2 C2 | G,4 z4 | z2 G,4 F,2 | G,2 G,2 D,2 F,2- | %220
w: * tu do- mi-|ne ad-|* iu- vi- sti|~me,|ad- iu-|vi- sti me, *|
 F,2 E,D, E,4 | D,4 z4 | z4 z2 G,2 | B,3 A,/G,/ F,2 B,2 | A,4 D,4- | D,4 z4 | z8 | z2 G,4 F,2 | %228
w: ||ad-|~iu- * * vi \--|sti ~me,|||et con-|
 G,4 D,E,F,G, | A,G,A,B, CA, D2- | D2 G,2 A,4 | D,8 |] %232
w: so- la \- * *|* * \- * * \- *|\- tus es|~me.|

